brandFactory_export/3.Masa/Arbol 2 _3Masa.svg

<?xml version="1.0" encoding="UTF-8"?>
<svg width="24px" height="24px" viewBox="0 0 24 24" version="1.1" xmlns="http://www.w3.org/2000/svg" xmlns:xlink="http://www.w3.org/1999/xlink">
    <title>3.Masa/Arbol 2 _3Masa</title>
    <g id="Symbols" stroke="none" stroke-width="1" fill="none" fill-rule="evenodd">
        <g id="3.Masa/Arbol-2-_3Masa" fill="#5CB615" fill-rule="nonzero">
            <path d="M18.0369748,4.52773109 C16.5411765,0.221848739 11.6941176,0 10.7058824,0 C9.43193277,0 3.17647059,0.346218487 2.94453782,7.07226891 C1.6605042,7.58655462 0,8.84033613 0,11.8655462 C0,15.7176471 2.69243697,17.0890756 5.21008403,17.0890756 L11.0084034,17.0890756 L11.0084034,15.2773109 L8.13109244,12.3663866 C7.8487395,12.0806723 7.85210084,11.6168067 8.13445378,11.3344538 C8.41680672,11.0521008 8.87731092,11.0521008 9.15966387,11.3378151 L11.0084034,13.2067227 L11.0084034,8.91764706 C11.0084034,8.51428571 11.3310924,8.18823529 11.7344538,8.18823529 C12.1344538,8.18823529 12.4605042,8.51428571 12.4605042,8.91764706 L12.4605042,10.1579832 L13.892437,8.20504202 C14.1310924,7.88235294 14.5848739,7.81176471 14.907563,8.05042017 C15.2302521,8.28907563 15.297479,8.74621849 15.0588235,9.07226891 L12.487395,12.5781513 C12.4806723,12.5882353 12.4672269,12.5915966 12.4605042,12.6016807 L12.4605042,17.0756303 L11.0117647,17.0890756 L11.0117647,22.8907563 C11.0117647,23.2941176 11.3344538,23.6201681 11.7378151,23.6201681 C12.1378151,23.6201681 12.4638655,23.2941176 12.4638655,22.8907563 L12.4638655,17.0857143 L17.3109244,17.0554622 C20.2285714,17.0554622 23.6302521,15.4016807 23.6302521,10.7428571 C23.6235294,6.53109244 20.8302521,4.78991597 18.0369748,4.52773109" id="Path"></path>
        </g>
    </g>
</svg>

<svg width="24" height="24" viewBox="0 0 24 24" xmlns="http://www.w3.org/2000/svg"><path d="M18.037 4.528C16.541.222 11.694 0 10.706 0c-1.274 0-7.53.346-7.761 7.072C1.66 7.587 0 8.84 0 11.866c0 3.852 2.692 5.223 5.21 5.223h5.798v-1.812l-2.877-2.91a.734.734 0 01.003-1.033.723.723 0 011.026.004l1.848 1.869v-4.29a.726.726 0 111.453 0v1.241l1.431-1.953a.726.726 0 111.167.867l-2.572 3.506c-.006.01-.02.014-.026.024v4.474l-1.45.013v5.802a.726.726 0 101.453 0v-5.805l4.847-.03c2.918 0 6.32-1.654 6.32-6.313-.007-4.212-2.8-5.953-5.594-6.215" fill="#5CB615" fill-rule="nonzero"/></svg>
